X:1
T:Title
%%score { 1 | 2 }
L:1/8
M:4/4
K:G
V:1 treble nm="Grand Piano"
V:2 bass 
V:1
 z4 z2[Q:1/4=100] [B,D]2 | [B,G]3 [CA] [DB]2 [DG]2 | E2 G2 E D2 D | G3 A B2 G2 |[M:7/8] d2 B2 A3 | %5
[M:1/8] D |[M:4/4] [B,G]3 [CA] [DB]2 [DG]2 | E2 G2 E D2 B | d3 [Ad] [Gd]3 [^CG] | %9
[M:7/8] [DGB]2 [CDA]2 [G,B,DG]3 |[M:1/8] [DGB] |[M:4/4] [Gd]2 [Ad]2 [Bd] [GB]3 | %12
 [FA]2 [FB]2 A G2 B | d2 [Ad]2 [Bd]3 [GB] |[M:7/8] [Ac]2 [GB]2 [FA]3 |[M:1/8] [CD] | %16
[M:4/4] [B,G]3 [CA] [DB]2 [DG]2 | E2 G2 E D2 B | d2 [Ad]2 d3 G |[M:3/4] [GB]2 A2 G2 |] %20
V:2
 z4 z2 [G,,G,]2 | [G,,G,]3 [G,,D,] [G,,G,]2 [B,,G,]2 | [C,G,C]2 [E,C]2 [G,C] [G,B,]2 [G,B,] | %3
 [G,B,D]3 [G,CD] [G,DG]2[K:bass] [G,B,D]2 |[M:7/8] [F,A,D]2 [G,D]2 [D,F,D]3 |[M:1/8] [D,F,C] | %6
[M:4/4] [G,,G,]3 [G,,D,] [G,,G,]2 [B,,G,]2 | [C,G,C]2 [E,C]2 [G,C] [G,B,]2[K:treble] [G,D] | %8
 [G,B,G]3[K:bass] [D,C] [G,B,]3 E, |[M:7/8] D,2 D,2 G,,3 |[M:1/8] G, | %11
[M:4/4] [G,B,]2 [G,C]2 [G,D] [G,D]3 | [D,C]2 [D,D]2[K:treble] [G,CD] [G,B,D]2 [G,DG] | %13
 [G,B,G]2 [G,C]2[K:bass] [G,D]3 [G,D] |[M:7/8] [F,D]2 [G,D]2 [D,D]3 |[M:1/8] [D,F,] | %16
[M:4/4] [G,,G,]3 [G,,D,] [G,,G,]2 [B,,G,]2 | [C,G,C]2 [E,C]2 [G,C] [G,B,]2[K:treble] [G,D] | %18
 [G,B,G]2[K:bass] [D,C]2 [G,B,G]3 [E,^C] |[M:3/4] [D,D]2 [D,CD]2 [G,B,D]2 |] %20

